X:1
T: Blue Bonnets Jig
C:
R:Jig
Q:180
K:A
M:6/8
L:1/16
A2B2A2 c4e2|a2b2a2 a4e2|g2a2g2 f2g2f2|e2c2A2 B4e2|A2B2A2 c4e2|a2b2a2 a4e2|f2e2d2 c2d2e2|f2a2c2 B4A2|
A2B2A2 c4e2|a2b2a2 a4e2|g2a2g2 f2g2f2|e2c2A2 B4e2|A2B2A2 c4e2|a2b2a2 a4e2|f2e2d2 c2d2e2|f2a2c2 B4A2|
A2c2e2 e2c2e2|f2e2d2 c2B2A2|A2c2e2 e2f2a2|A2B2c2 B4A2|A2c2e2 e2c2e2|f2e2d2 c2B2A2|a2g2f2 e2c2e2|f2a2c2 B4A2|
A2c2e2 e2c2e2|f2e2d2 c2B2A2|A2c2e2 e2f2a2|A2B2c2 B4A2|A2c2e2 e2c2e2|f2e2d2 c2B2A2|a2g2f2 e2c2e2|f2a2c2 B4A2||
